svgs/regular/light-switch-off.svg

<svg xmlns="http://www.w3.org/2000/svg" viewBox="0 0 384 512"><!--! Font Awesome Pro 6.6.0 by @fontawesome - https://fontawesome.com License - https://fontawesome.com/license (Commercial License) Copyright 2024 Fonticons, Inc. --><path d="M169.4 464c3.3-9.3 12.2-16 22.6-16s19.3 6.7 22.6 16L320 464c8.8 0 16-7.2 16-16l0-384c0-8.8-7.2-16-16-16L214.6 48c-3.3 9.3-12.2 16-22.6 16s-19.3-6.7-22.6-16L64 48c-8.8 0-16 7.2-16 16l0 384c0 8.8 7.2 16 16 16l105.4 0zM64 512c-35.3 0-64-28.7-64-64L0 64C0 28.7 28.7 0 64 0L320 0c35.3 0 64 28.7 64 64l0 384c0 35.3-28.7 64-64 64L64 512zm80-256l96 0 0-112-96 0 0 112zm0 160c-26.5 0-48-21.5-48-48l0-224c0-26.5 21.5-48 48-48l96 0c26.5 0 48 21.5 48 48l0 224c0 26.5-21.5 48-48 48l-96 0z"/></svg>

<svg xmlns="http://www.w3.org/2000/svg" viewBox="0 0 384 512"><!--! Font Awesome Pro 6.4.2 by @fontawesome - https://fontawesome.com License - https://fontawesome.com/license (Commercial License) Copyright 2023 Fonticons, Inc. --><path d="M169.4 464c3.3-9.3 12.2-16 22.6-16s19.3 6.7 22.6 16H320c8.8 0 16-7.2 16-16V64c0-8.8-7.2-16-16-16H214.6c-3.3 9.3-12.2 16-22.6 16s-19.3-6.7-22.6-16H64c-8.8 0-16 7.2-16 16V448c0 8.8 7.2 16 16 16H169.4zM64 512c-35.3 0-64-28.7-64-64V64C0 28.7 28.7 0 64 0H320c35.3 0 64 28.7 64 64V448c0 35.3-28.7 64-64 64H64zm80-256h96V144H144V256zm0 160c-26.5 0-48-21.5-48-48V144c0-26.5 21.5-48 48-48h96c26.5 0 48 21.5 48 48V368c0 26.5-21.5 48-48 48H144z"/></svg>
